X: 94
T: The SARABAND
%R: saraband, waltz
B: Jean White "100 Popular Hornpipes, Reels, Jigs and Country Dances", Boston 1880 p.39
F: http://www.loc.gov/resource/sm1880.09124.0#seq-1
Z: 2014 John Chambers <jc:trillian.mit.edu>
M: 3/4
L: 1/8
Q: "Tempo di Valse."
K: C
% - - - - - - - - - - - - - - - - - - - - - - - - - - - - -
(GF) |\
(EG)(Gc)c2 | (EG)(Gc)c2 |\
(Bd)(df)(fa) | (ag)(fg)(ec) |\
(EG)(Gc)c2 | (EG)(Gc)c2 |\
(Bd)(df)(ag) | c4 :|
|: (dc) |\
(Bd)(df)(fa) | (ag)(fg)(ec) |\
(cB)(dB)(GB) | (cd)(ec)(Gc) |\
(Bd)(df)(fa) | (ag)(fg)(ec) |\
(cB)(dB)(GB) | c4 :|
Q: "Presto."
|: G2 |\
.G2.f2.d2 | .G2.e2.c2 |\
.F2.d2.B2 | .c.B.c.d.e2 |\
.G2.f2.d2 | .G2.e2.c2 |\
.F2.d2.B2 | c4 H:|
% - - - - - - - - - - - - - - - - - - - - - - - - - - - - -

%%sep 1 1 500
%%sep 1 1 500
